packages/foundations/assets/icons/functional/images/business & payment/tickets_16.svg

<svg width="16" height="16" viewBox="0 0 16 16" fill="none" xmlns="http://www.w3.org/2000/svg">
<g clip-path="url(#clip0_184_169)">
<path fill-rule="evenodd" clip-rule="evenodd" d="M7.98998 4.79998C8.87298 4.79998 9.59998 5.50198 9.59998 6.38698V12.787C9.59814 13.2137 9.42802 13.6224 9.12657 13.9245C8.82512 14.2265 8.41668 14.3973 7.98998 14.4H3.20998C2.30098 14.4 1.59998 13.672 1.59998 12.787V6.38698C1.59998 5.50198 2.30098 4.79998 3.20998 4.79998H7.98998ZM7.99998 6.41298H3.18698V12.813H7.99998V6.41298ZM4.39998 11.2V9.59998H5.19998V11.2H4.39998ZM5.99698 11.2V9.59998H6.79698V11.2H5.99698ZM6.39998 2.40398C6.40155 2.19105 6.4869 1.98732 6.63755 1.83685C6.78821 1.68638 6.99205 1.60128 7.20498 1.59998H12.79C13.699 1.59998 14.4 2.32698 14.4 3.20898V9.58998C14.4012 9.80169 14.3603 10.0115 14.2798 10.2074C14.1993 10.4032 14.0808 10.5811 13.931 10.7307C13.7813 10.8804 13.6033 10.9988 13.4074 11.0792C13.2116 11.1596 13.0017 11.2003 12.79 11.199H12.01C11.797 11.1979 11.593 11.1129 11.4423 10.9624C11.2916 10.8119 11.2063 10.608 11.205 10.395C11.2063 10.1819 11.2915 9.97789 11.4422 9.8272C11.5929 9.67652 11.7969 9.59129 12.01 9.58998H12.79V3.20998H7.20498C6.9918 3.20892 6.78766 3.12377 6.63692 2.97303C6.48618 2.8223 6.40103 2.61715 6.39998 2.40398Z" fill="#1A1C1F"/>
</g>
<defs>
<clipPath id="clip0_184_169">
<rect width="16" height="16" fill="white"/>
</clipPath>
</defs>
</svg>

<svg xmlns="http://www.w3.org/2000/svg" width="16" height="16" fill="none"><g clip-path="url(#a)"><path fill="#1A1C1F" fill-rule="evenodd" d="M7.99 4.8c.883 0 1.61.702 1.61 1.587v6.4A1.62 1.62 0 0 1 7.99 14.4H3.21c-.909 0-1.61-.728-1.61-1.613v-6.4c0-.885.701-1.587 1.61-1.587zM8 6.413H3.187v6.4H8zM4.4 11.2V9.6h.8v1.6zm1.597 0V9.6h.8v1.6zM6.4 2.404a.81.81 0 0 1 .805-.804h5.585c.909 0 1.61.727 1.61 1.609V9.59a1.6 1.6 0 0 1-1.61 1.609h-.78a.81.81 0 0 1-.805-.804.81.81 0 0 1 .805-.805h.78V3.21H7.205a.81.81 0 0 1-.805-.806" clip-rule="evenodd"/></g><defs><clipPath id="a"><path fill="#fff" d="M0 0h16v16H0z"/></clipPath></defs></svg>
